X: 1
T: Tiqi gege zou xikou
L: 1/8
M: 4/8
K: G
bb2b/ b/ [I:setbarnb 1]| 
ba2a | 
[M:3/8]g e d | 
B3 | 
e e e | 
g g e | 
e d B | 
d3 |]

@@@ Tune index: 8875
